src/assets/imgs/service-i-3.svg

<svg width="73" height="73" viewBox="0 0 73 73" fill="none" xmlns="http://www.w3.org/2000/svg">
<rect x="0.538086" y="0.84375" width="72" height="72" rx="36" fill="#8A8A8E"/>
<g clip-path="url(#clip0_28_336)">
<path d="M36.2045 25.1402C35.716 25.4168 35.512 25.998 35.6922 26.5699C35.716 26.6449 35.3839 26.9965 33.8993 28.459L32.0826 30.2543L31.8027 30.123C31.5466 30.0059 31.466 29.9918 30.9964 29.9918C30.5078 29.9918 30.4556 30.0012 30.1568 30.1418C29.7157 30.348 29.4406 30.6105 29.2271 31.0371C29.0564 31.384 29.0516 31.4074 29.0516 31.909C29.0516 32.3824 29.0658 32.4574 29.1844 32.7105L29.3172 32.9871L27.5006 34.7824C26.0206 36.2496 25.6649 36.5777 25.589 36.5543C25.0103 36.3762 24.4174 36.5824 24.1376 37.0699C24.019 37.2715 24 37.3559 24 37.6559C24 37.9746 24.0142 38.0402 24.1565 38.2652C24.6261 39.0387 25.7977 39.0059 26.2009 38.209C26.3337 37.9512 26.3717 37.4965 26.2815 37.2668C26.2388 37.1637 26.3242 37.0699 27.2776 36.1277C28.2121 35.2043 28.3117 35.1246 28.231 35.3121C27.9512 35.973 27.6618 37.0512 27.5385 37.8902C27.1448 40.5902 27.8184 43.4637 29.3789 45.6949L29.6398 46.0699L29.284 46.4262C28.9568 46.759 28.933 46.8012 28.933 46.9887C28.933 47.1855 28.9425 47.1996 29.8485 48.0949C31.0723 49.3043 30.873 49.3043 32.0968 48.0949C32.8937 47.3121 33.017 47.1715 33.0455 47.0168L33.0739 46.8387L32.13 45.9012C31.613 45.3855 31.1387 44.9543 31.0818 44.9402C30.9157 44.898 30.7782 44.9637 30.4936 45.2355L30.2232 45.4887L29.9102 45.0059C29.0991 43.7684 28.5631 42.3527 28.3306 40.8434C28.2215 40.1168 28.2215 38.7668 28.3354 38.0121C28.5393 36.634 29.0089 35.3402 29.7489 34.1121C29.9718 33.7371 30.0619 33.6293 30.1141 33.6527C30.4699 33.8027 30.6027 33.8309 30.9964 33.8262C31.3094 33.8262 31.4897 33.8027 31.6652 33.7324C32.2012 33.5262 32.6233 33.1137 32.8273 32.6074C32.9791 32.2277 32.9838 31.5434 32.832 31.2199L32.7324 30.9949L33.0739 30.7746C33.2637 30.6574 33.6336 30.4465 33.8993 30.3152C37.2291 28.6418 41.1328 28.8527 44.2919 30.873L44.733 31.1543L44.4674 31.4215C44.2729 31.6184 44.197 31.7309 44.1733 31.8621L44.1448 32.0402L45.1219 33.0012L46.0943 33.9668L46.2793 33.9387C46.4358 33.9105 46.5781 33.7887 47.3703 33.0012C48.2525 32.1293 48.2857 32.0871 48.2857 31.909C48.2857 31.7309 48.2525 31.6887 47.3465 30.798C46.4548 29.9168 46.4026 29.8746 46.2271 29.8746C46.0658 29.8746 46.0089 29.9121 45.6816 30.2215L45.3211 30.573L44.9417 30.3152C42.5843 28.7074 39.558 28.0559 36.7121 28.5434C35.9484 28.6746 34.791 29.0027 34.3641 29.2043C34.2835 29.2465 34.6772 28.8199 35.2606 28.2434C36.214 27.2965 36.3089 27.2121 36.4132 27.2543C36.6077 27.3246 37.101 27.3012 37.305 27.2074C37.5611 27.0949 37.8694 26.7387 37.9453 26.4762C38.0924 25.9559 37.8836 25.4215 37.4235 25.1496C37.1959 25.0137 37.1295 24.9996 36.8069 24.9996C36.4986 24.9996 36.418 25.0184 36.2045 25.1402ZM37.0868 25.9184C37.2148 26.0824 37.2101 26.2277 37.0773 26.3871C36.9255 26.5559 36.6836 26.5559 36.5366 26.3824C36.399 26.2277 36.399 26.0777 36.5271 25.9184C36.603 25.8246 36.6646 25.7965 36.8069 25.7965C36.9492 25.7965 37.0109 25.8246 37.0868 25.9184ZM31.4754 30.8777C31.945 31.0934 32.2249 31.6184 32.1253 32.1012C32.0209 32.5887 31.6794 32.9262 31.1861 33.0293C30.6975 33.1277 30.1663 32.8512 29.9481 32.3871C29.7347 31.9324 29.82 31.4824 30.19 31.1168C30.5552 30.7512 31.0153 30.6668 31.4754 30.8777ZM46.7916 31.3746L47.3133 31.8902L46.7773 32.4199L46.2461 32.9449L45.7148 32.4199L45.1789 31.8902L45.7006 31.3746C45.9852 31.0934 46.2319 30.859 46.2461 30.859C46.2603 30.859 46.507 31.0934 46.7916 31.3746ZM25.3945 37.3793C25.5416 37.4918 25.5653 37.759 25.4372 37.8996C25.2522 38.1012 24.8064 37.9137 24.8064 37.6324C24.8064 37.4777 25.0008 37.2809 25.1526 37.2809C25.2143 37.2809 25.3234 37.323 25.3945 37.3793ZM31.5181 47.4996L30.9727 48.0387L30.4414 47.509L29.9054 46.984L30.4509 46.4449L30.9964 45.9059L31.5276 46.4309L32.0636 46.9605L31.5181 47.4996Z" fill="white"/>
<path d="M32.8892 33.775C32.2679 34.3891 32.1113 34.5672 32.1113 34.6703C32.1113 34.8297 36.0767 44.6453 36.1716 44.7156C36.2095 44.7437 37.1772 45.1234 38.3203 45.5594L40.3979 46.3516L41.0287 47.5938C41.375 48.2781 41.6881 48.8734 41.7307 48.9156C41.7782 48.9719 41.873 49 41.9964 49C42.1908 49 42.2003 48.9906 45.2408 45.9859C48.2765 42.9859 48.286 42.9766 48.286 42.7844C48.286 42.6625 48.2575 42.5687 48.2054 42.5219C48.1579 42.4797 47.5555 42.1703 46.863 41.8281L45.606 41.2047L44.8518 39.2547C44.4344 38.1812 44.0597 37.2297 44.0123 37.1359L43.9269 36.9672L38.9559 35.0031C36.2238 33.925 33.9138 33.0344 33.8284 33.025C33.6766 33.0062 33.6244 33.0437 32.8892 33.775ZM38.6571 35.7531L43.3292 37.6L44.0692 39.4937L44.8092 41.3828L42.7031 43.4734L40.5924 45.5641L38.6713 44.8328L36.7503 44.1016L34.8814 39.4844C33.8521 36.9437 33.0126 34.8437 33.0126 34.8156C33.0126 34.7875 33.0458 34.7359 33.0884 34.6984C33.1501 34.6469 33.4821 34.9562 35.5787 37.0281L37.9978 39.4187L37.8555 39.7188C37.3147 40.8672 37.7796 42.1656 38.9275 42.7094C39.2927 42.8781 39.3069 42.8828 39.8666 42.8828C40.3504 42.8828 40.4785 42.8641 40.7109 42.775C41.2659 42.55 41.7592 42.0625 41.9869 41.5094C42.077 41.2844 42.096 41.1578 42.096 40.6797C42.096 40.1266 42.0912 40.1125 41.9205 39.7516C41.3703 38.6172 40.0421 38.1531 38.8895 38.6922L38.5907 38.8328L36.1716 36.4422C34.0751 34.3703 33.762 34.0422 33.8142 33.9812C33.8521 33.9391 33.9043 33.9062 33.9328 33.9062C33.9612 33.9062 36.0862 34.7359 38.6571 35.7531ZM40.4548 39.3906C40.7631 39.5219 41.1331 39.9156 41.2374 40.2156C41.4746 40.9094 41.1663 41.6359 40.4975 41.9687C39.7812 42.3203 38.918 42.0109 38.567 41.2703C38.4104 40.9328 38.4009 40.4594 38.548 40.1359C38.8848 39.3953 39.7054 39.0719 40.4548 39.3906ZM46.2938 42.4609C46.7919 42.7047 47.195 42.9109 47.195 42.9203C47.195 42.925 46.0566 44.0547 44.6621 45.4328L42.1292 47.9359L41.6691 47.0312L41.209 46.1266L43.2913 44.0687C44.4344 42.9391 45.3736 42.0156 45.3831 42.0156C45.3878 42.0156 45.8005 42.2172 46.2938 42.4609Z" fill="white"/>
</g>
<defs>
<clipPath id="clip0_28_336">
<rect width="24.2857" height="24" fill="white" transform="translate(24 25)"/>
</clipPath>
</defs>
</svg>

<svg width="73" height="73" fill="none" xmlns="http://www.w3.org/2000/svg"><rect x=".538" y=".844" width="72" height="72" rx="36" fill="#8A8A8E"/><g clip-path="url(#a)" fill="#fff"><path d="M36.205 25.14c-.489.277-.693.858-.513 1.43.024.075-.308.427-1.793 1.889l-1.816 1.795-.28-.131c-.256-.117-.337-.131-.807-.131-.488 0-.54.01-.84.15-.44.206-.715.468-.929.895-.17.347-.175.37-.175.872 0 .473.014.548.132.802l.133.276-1.816 1.795c-1.48 1.468-1.836 1.796-1.912 1.772-.579-.178-1.172.028-1.451.516-.119.202-.138.286-.138.586 0 .319.014.384.157.61.47.773 1.64.74 2.044-.057.133-.258.17-.713.08-.942-.042-.103.043-.197.997-1.14.934-.923 1.034-1.002.953-.815-.28.661-.57 1.74-.693 2.578-.393 2.7.28 5.574 1.84 7.805l.262.375-.356.356c-.327.333-.351.375-.351.563 0 .197.01.21.916 1.106 1.223 1.21 1.024 1.21 2.248 0 .797-.783.92-.923.948-1.078l.029-.178-.944-.938c-.517-.516-.991-.947-1.048-.96-.166-.043-.304.023-.588.294l-.27.254-.314-.483a10.485 10.485 0 0 1-1.58-4.163c-.108-.726-.108-2.076.005-2.83a10.436 10.436 0 0 1 1.414-3.9c.223-.376.313-.484.365-.46.356.15.489.178.882.173.313 0 .494-.023.67-.094a2.036 2.036 0 0 0 1.161-1.125c.152-.38.157-1.064.005-1.387l-.1-.225.342-.22c.19-.118.56-.328.825-.46 3.33-1.673 7.234-1.462 10.393.558l.441.281-.266.268c-.194.196-.27.309-.294.44l-.028.178.977.961.972.966.185-.028c.157-.029.3-.15 1.091-.938.883-.872.916-.914.916-1.092 0-.178-.034-.22-.94-1.111-.891-.881-.943-.923-1.119-.923-.161 0-.218.037-.545.346l-.36.352-.38-.258c-2.358-1.608-5.384-2.26-8.23-1.772-.764.132-1.921.46-2.348.661-.08.043.313-.384.897-.96.953-.947 1.048-1.032 1.152-.99.195.07.688.047.892-.047.256-.112.564-.468.64-.73a1.156 1.156 0 0 0-.522-1.327c-.227-.136-.294-.15-.616-.15-.308 0-.389.018-.602.14zm.882.778c.128.164.123.31-.01.47a.349.349 0 0 1-.54-.006c-.138-.154-.138-.304-.01-.464.076-.093.138-.121.28-.121.142 0 .204.028.28.121zm-5.612 4.96c.47.215.75.74.65 1.223a1.165 1.165 0 0 1-.939.928c-.488.099-1.02-.178-1.238-.642-.213-.455-.128-.905.242-1.27.365-.366.825-.45 1.285-.24zm15.317.497.521.515-.536.53-.53.525-.532-.525-.536-.53.522-.515c.284-.282.53-.516.545-.516.014 0 .261.234.546.516zm-21.398 6.004c.148.113.171.38.043.52-.185.202-.63.015-.63-.267 0-.154.194-.351.346-.351.061 0 .17.042.242.098zm6.124 10.12-.545.54-.532-.53-.536-.525.546-.54.545-.538.532.525.536.53-.546.539z"/><path d="M32.89 33.775c-.622.614-.779.792-.779.895 0 .16 3.966 9.975 4.06 10.046.038.028 1.006.407 2.15.843l2.077.793.63 1.242c.347.684.66 1.28.703 1.322.047.056.142.084.265.084.195 0 .204-.01 3.245-3.014 3.035-3 3.045-3.01 3.045-3.202 0-.121-.029-.215-.08-.262-.048-.042-.65-.352-1.343-.694l-1.257-.623-.754-1.95a90.32 90.32 0 0 0-.84-2.12l-.085-.168-4.971-1.964c-2.732-1.078-5.042-1.969-5.128-1.978-.151-.019-.204.019-.939.75zm5.767 1.978L43.33 37.6l.74 1.894.74 1.889-2.106 2.09-2.11 2.091-1.922-.731-1.92-.731-1.87-4.618c-1.029-2.54-1.868-4.64-1.868-4.668 0-.029.033-.08.075-.118.062-.051.394.258 2.49 2.33l2.42 2.39-.142.3c-.541 1.15-.076 2.448 1.072 2.991.365.17.379.174.939.174.483 0 .611-.019.844-.108a2.41 2.41 0 0 0 1.276-1.266c.09-.225.109-.351.109-.83 0-.552-.005-.567-.175-.927-.55-1.135-1.879-1.599-3.032-1.06l-.298.14-2.42-2.39c-2.096-2.072-2.409-2.4-2.357-2.46.038-.043.09-.076.119-.076.028 0 2.153.83 4.724 1.847zm1.798 3.638c.308.13.678.525.782.825.238.693-.07 1.42-.74 1.753-.716.351-1.579.042-1.93-.699-.157-.337-.166-.81-.019-1.134a1.442 1.442 0 0 1 1.907-.745zm5.839 3.07c.498.244.901.45.901.46 0 .004-1.138 1.134-2.533 2.512l-2.533 2.503-.46-.905-.46-.904 2.082-2.058a196.772 196.772 0 0 1 2.092-2.053c.005 0 .417.201.91.445z"/></g><defs><clipPath id="a"><path fill="#fff" transform="translate(24 25)" d="M0 0h24.286v24H0z"/></clipPath></defs></svg>
